X:1
T:Roseville Fair
M:2/2
L:1/8
K:G
 GG G2A-G| B4 z4| z2 BB c2 c2| B4 A- G3| z2 BB c2 B2| B2- A4 z2| z2 D2 BA GF|\
 G4 z4| z2 GG GG AG| B4 z4| z2 BB c2 cc| B4 A- G3| z2 BB c2 B2| B2- A4 z2|\
 z2 DD BA GF| G6 z2| z2 BB c2 d2| e2- d4 z2| z2 dd ed dd| d4 B4-| A2 A2 B2 A2|\
 G4 z4| z2 AA A- G2 G| B4 z4| z2 B2 c2 d2| e2- d4 z2| z2 dd e3 d| d4 B4-|\
 A2 AA B2 A2| G4 z4| z2 DDB-A G2| G6 z2|
